imgs/partners/adidas_logo.svg

<?xml version="1.0" encoding="UTF-8"?>
<svg width="283px" height="283px" viewBox="0 0 283 283" version="1.1" xmlns="http://www.w3.org/2000/svg" xmlns:xlink="http://www.w3.org/1999/xlink">
    <defs>
        <polygon id="path-1" points="0 284 283.46 284 283.46 0.54 0 0.54"></polygon>
    </defs>
    <g stroke="none" stroke-width="1" fill="none" fill-rule="evenodd">
        <polygon fill="#020000" points="0 283.46 283.46 283.46 283.46 0 0 0"></polygon>
        <g id="Group-14" transform="translate(0.000000, -0.540000)">
            <path d="M229.9863,212.496 C220.1353,212.496 214.2963,207.45 213.9383,200.321 L223.1823,200.321 C223.1823,202.535 224.5953,205.829 230.5523,205.927 C234.5303,205.927 236.4243,203.583 236.4243,201.832 C236.1713,199.039 232.6623,198.792 228.9123,198.199 C225.1813,197.62 222.0103,196.917 219.6803,195.751 C216.7513,194.227 214.7453,190.94 214.7453,187.21 C214.7453,180.898 220.2593,175.846 229.3933,175.846 C238.2873,175.846 243.8983,180.54 244.4843,187.437 L235.5913,187.437 C235.4673,185.569 235.1233,182.649 229.8563,182.649 C226.3403,182.649 224.0163,183.352 223.7823,185.809 C223.7823,189.43 231.1443,189.202 236.8743,190.706 C242.3753,192.105 245.8903,195.523 245.8903,200.321 C245.8903,209.091 238.7493,212.496 229.9863,212.496" fill="#FFFFFE"></path>
            <polygon fill="#FFFFFE" points="60.0371 153.7431 90.8151 136.0581 107.0811 164.1531 66.0081 164.1531"></polygon>
            <mask id="mask-2" fill="white">
                <use xlink:href="#path-1"></use>
            </mask>
            <polygon fill="#FFFFFE" mask="url(#mask-2)" points="120.187 211.662 128.972 211.662 128.972 176.197 120.187 176.197"></polygon>
            <path d="M55.9365,212.496 C45.8735,212.496 37.5675,204.163 37.5675,194.104 C37.5675,183.925 45.8735,175.846 55.9365,175.846 C59.7995,175.846 63.4325,176.9 66.4725,179.01 L66.4725,176.197 L75.1345,176.197 L75.1345,211.662 L66.4725,211.662 L66.4725,209.319 C63.5425,211.305 59.9195,212.496 55.9365,212.496 M45.9955,194.104 C45.9955,199.618 50.6655,204.163 56.1765,204.163 C61.7915,204.163 66.4725,199.618 66.4725,194.104 C66.4725,188.597 61.7915,183.925 56.1765,183.925 C50.6655,183.925 45.9955,188.597 45.9955,194.104" fill="#FFFFFE" mask="url(#mask-2)"></path>
            <polygon fill="#FFFFFE" mask="url(#mask-2)" points="174.1406 164.1533 131.3096 89.8323 162.0966 72.0463 215.3506 164.1533"></polygon>
            <path d="M96.668,212.496 C86.482,212.496 78.182,204.163 78.182,194.104 C78.182,183.925 86.482,175.846 96.668,175.846 C100.525,175.846 104.048,176.9 107.081,179.01 L107.081,164.153 L115.857,164.153 L115.857,211.662 L107.081,211.662 L107.081,209.319 C104.048,211.305 100.525,212.496 96.668,212.496 M86.597,194.104 C86.597,199.618 91.274,204.163 96.902,204.163 C102.4,204.163 107.081,199.618 107.081,194.104 C107.081,188.597 102.4,183.925 96.902,183.925 C91.274,183.925 86.597,188.597 86.597,194.104" fill="#FFFFFE" mask="url(#mask-2)"></path>
            <polygon fill="#FFFFFE" mask="url(#mask-2)" points="95.958 122.1328 126.866 104.4668 161.387 164.1538 128.972 164.1538 128.972 172.9428 120.187 172.9428 120.187 164.1538"></polygon>
            <path d="M191.3535,212.496 C181.2895,212.496 172.9815,204.163 172.9815,194.104 C172.9815,183.925 181.2895,175.846 191.3535,175.846 C195.2145,175.846 198.8335,176.9 201.7575,179.01 L201.7575,176.197 L210.5455,176.197 L210.5455,211.662 L201.7575,211.662 L201.7575,209.319 C198.8335,211.305 195.3325,212.496 191.3535,212.496 M181.5105,194.104 C181.5105,199.618 186.2045,204.163 191.7115,204.163 C197.2075,204.163 201.7575,199.618 201.7575,194.104 C201.7575,188.597 197.2075,183.925 191.7115,183.925 C186.2045,183.925 181.5105,188.597 181.5105,194.104" fill="#FFFFFE" mask="url(#mask-2)"></path>
            <path d="M161.3867,164.1533 L170.0517,164.1533 L170.0517,211.6623 L161.3867,211.6623 L161.3867,209.3193 C158.4707,211.3043 154.8437,212.4963 150.8537,212.4963 C140.7847,212.4963 132.4777,204.1633 132.4777,194.1043 C132.4777,183.9243 140.7847,175.8453 150.8537,175.8453 C154.8437,175.8453 158.3537,176.9003 161.3867,179.0093 L161.3867,164.1533 Z M141.0227,194.1043 C141.0227,199.6183 145.7027,204.1633 151.0937,204.1633 C156.7057,204.1633 161.3867,199.6183 161.3867,194.1043 C161.3867,188.5963 156.7057,183.9243 151.0937,183.9243 C145.7027,183.9243 141.0227,188.5963 141.0227,194.1043 Z" id="Fill-13" fill="#FFFFFE" mask="url(#mask-2)"></path>
        </g>
    </g>
</svg>

<svg width="283" height="283" xmlns="http://www.w3.org/2000/svg" xmlns:xlink="http://www.w3.org/1999/xlink"><defs><path id="a" d="M0 284h283.46V.54H0z"/></defs><g fill="none" fill-rule="evenodd"><path fill="#020000" d="M0 283.46h283.46V0H0z"/><g transform="translate(0 -.54)"><path d="M229.986 212.496c-9.85 0-15.69-5.046-16.048-12.175h9.244c0 2.214 1.413 5.508 7.37 5.606 3.978 0 5.872-2.344 5.872-4.095-.253-2.793-3.762-3.04-7.512-3.633-3.73-.579-6.902-1.282-9.232-2.448-2.929-1.524-4.935-4.811-4.935-8.541 0-6.312 5.514-11.364 14.648-11.364 8.894 0 14.505 4.694 15.091 11.591h-8.893c-.124-1.868-.468-4.788-5.735-4.788-3.516 0-5.84.703-6.074 3.16 0 3.621 7.362 3.393 13.092 4.897 5.501 1.399 9.016 4.817 9.016 9.615 0 8.77-7.14 12.175-15.904 12.175M60.037 153.743l30.778-17.685 16.266 28.095H66.008z" fill="#FFFFFE"/><mask id="b" fill="#fff"><use xlink:href="#a"/></mask><path fill="#FFFFFE" mask="url(#b)" d="M120.187 211.662h8.785v-35.465h-8.785zm-64.25.834c-10.063 0-18.37-8.333-18.37-18.392 0-10.179 8.306-18.258 18.37-18.258 3.863 0 7.495 1.054 10.535 3.164v-2.813h8.663v35.465h-8.663v-2.343c-2.93 1.986-6.552 3.177-10.535 3.177m-9.941-18.392c0 5.514 4.67 10.059 10.18 10.059 5.615 0 10.296-4.545 10.296-10.059 0-5.507-4.68-10.179-10.295-10.179-5.511 0-10.181 4.672-10.181 10.179m128.144-29.951l-42.83-74.32 30.787-17.787 53.254 92.107zm-77.472 48.343c-10.186 0-18.486-8.333-18.486-18.392 0-10.179 8.3-18.258 18.486-18.258 3.857 0 7.38 1.054 10.413 3.164v-14.857h8.776v47.509h-8.776v-2.343c-3.033 1.986-6.556 3.177-10.413 3.177m-10.071-18.392c0 5.514 4.677 10.059 10.305 10.059 5.498 0 10.179-4.545 10.179-10.059 0-5.507-4.681-10.179-10.179-10.179-5.628 0-10.305 4.672-10.305 10.179m9.361-71.971l30.908-17.666 34.521 59.687h-32.415v8.789h-8.785v-8.79zm95.395 90.363c-10.064 0-18.371-8.333-18.371-18.392 0-10.179 8.308-18.258 18.371-18.258 3.861 0 7.48 1.054 10.404 3.164v-2.813h8.788v35.465h-8.787v-2.343c-2.925 1.986-6.425 3.177-10.405 3.177m-9.843-18.392c0 5.514 4.695 10.059 10.202 10.059 5.496 0 10.046-4.545 10.046-10.059 0-5.507-4.55-10.179-10.047-10.179-5.507 0-10.2 4.672-10.2 10.179"/><path d="M161.387 164.153h8.665v47.51h-8.665v-2.344c-2.916 1.985-6.543 3.177-10.533 3.177-10.07 0-18.376-8.333-18.376-18.392 0-10.18 8.307-18.259 18.376-18.259 3.99 0 7.5 1.055 10.533 3.164v-14.856zm-20.364 29.951c0 5.514 4.68 10.06 10.07 10.06 5.613 0 10.294-4.546 10.294-10.06 0-5.508-4.681-10.18-10.293-10.18-5.391 0-10.071 4.672-10.071 10.18z" fill="#FFFFFE" mask="url(#b)"/></g></g></svg>
